docgen/assets/img/github-icon.svg

<svg viewBox="0 0 40 39" xmlns="http://www.w3.org/2000/svg"><path fill="#3E396B" d="M19.998 0C8.955 0 0 8.954 0 20c0 8.837 5.73 16.333 13.678 18.977 1 .184 1.365-.433 1.365-.964 0-.475-.017-1.732-.027-3.4C9.453 35.82 8.28 31.93 8.28 31.93c-.91-2.31-2.222-2.925-2.222-2.925-1.816-1.24.137-1.215.137-1.215 2.008.14 3.064 2.06 3.064 2.06 1.783 3.057 4.68 2.174 5.82 1.662.18-1.29.698-2.173 1.27-2.673-4.442-.505-9.11-2.222-9.11-9.885 0-2.183.78-3.97 2.058-5.367-.206-.506-.893-2.54.196-5.293 0 0 1.68-.538 5.5 2.05A19.156 19.156 0 0 1 20 9.67c1.7.01 3.41.23 5.008.675 3.818-2.588 5.494-2.05 5.494-2.05 1.09 2.753.405 4.787.2 5.293 1.282 1.397 2.055 3.184 2.055 5.367 0 7.683-4.676 9.374-9.13 9.868.716.618 1.356 1.838 1.356 3.703 0 2.675-.025 4.832-.025 5.487 0 .536.36 1.158 1.376.963C34.274 36.326 40 28.836 40 20 40 8.955 31.045 0 19.998 0"/></svg>

<svg id="github-icon" viewBox="0 0 40 39" width="100%" height="100%" xmlns="http://www.w3.org/2000/svg" xmlns:xlink= "http://www.w3.org/1999/xlink">
  <path fill="white" d="M19.998,0 C8.955,0 0,8.954 0,20 C0,28.837 5.73,36.333 13.678,38.977 C14.678,39.161 15.043,38.544 15.043,38.013 C15.043,37.538 15.026,36.281 15.016,34.613 C9.453,35.82 8.28,31.93 8.28,31.93 C7.37,29.62 6.058,29.005 6.058,29.005 C4.242,27.765 6.195,27.79 6.195,27.79 C8.203,27.93 9.259,29.85 9.259,29.85 C11.042,32.907 13.939,32.024 15.079,31.512 C15.259,30.222 15.777,29.339 16.349,28.839 C11.907,28.334 7.239,26.617 7.239,18.954 C7.239,16.771 8.019,14.984 9.297,13.587 C9.091,13.081 8.404,11.047 9.493,8.294 C9.493,8.294 11.173,7.756 14.993,10.344 C16.624924,9.89926425 18.308563,9.672627 20,9.67 C21.7,9.68 23.41,9.9 25.008,10.345 C28.826,7.757 30.502,8.295 30.502,8.295 C31.592,11.048 30.907,13.082 30.702,13.588 C31.984,14.985 32.757,16.772 32.757,18.955 C32.757,26.638 28.081,28.329 23.627,28.823 C24.343,29.441 24.983,30.661 24.983,32.526 C24.983,35.201 24.958,37.358 24.958,38.013 C24.958,38.549 25.318,39.171 26.334,38.976 C34.274,36.326 40,28.836 40,20 C40,8.955 31.045,0 19.998,0"></path>
</svg>
